X:1
T:Ring, Sweet Bells
T:Ring, Sweet Bells
T:Ira Bishop Wilson
T:May Huntington Davis, 1909
T:Public Domain Courtesy of the Cyber Hymnal™
C:Ira Bishop Wilson
Z:Public Domain
Z:Courtesy of the Cyber Hymnal™
%%score ( 1 2 ) ( 3 4 )
L:1/8
Q:1/4=100
M:4/4
K:Bb
V:1 treble 
V:2 treble 
V:3 bass 
V:4 bass 
V:1
 [B,D]>[CE] | [DF]2 [DB]2 [EA]>[EA] [EB]>[Ec] | d4 [DB]4 | [EB]2 [EB]2 [Ge]>[Ge] [GB]>[_Gc] | %4
w: 1.~O’er the|earth a hap- py song is|ring- ing,|Far and wide the mu- sic|
w: 2.~Join the|chor- us, hap- py hearts and|voic- es,|Wel- come in this bless- èd|
w: 3.~An- gel|voic- es chant the Christ- mas|sto- ry,|Join- ing in the glad re-|
 [Fd]6 [Fd]>[Fd] | [Fd]2 [Ec]2 [EG]>[EG] [EA]>[Ec] | [DB]4 [Fd]4 | %7
w: swells; Joy and|glad- ness un- to all ’tis|bring- ing;|
w: morn; ’Tis the|day when all the world re-|joic- es;|
w: frain, Sing- ing|“Glo- ry in the high- est,|glo- ry,|
 [Fc]2 [FA]2 [=EB]>[EB] [EA]>[EG] | (z6 E2) ||"^Refrain" [DF]2 [DG]2 (z2 (3DF{d'}B) | %10
w: Sweet the mu- sic of the||* bells. * * *|
w: Christ in Beth- le- hem is||* born. * * *|
w: Peace on earth, good will to||* men.” * * *|
 [Fd]2 [Ge]2 (z2 (3DF{d'}B) | [Fd]2 [Ec]2 [EG]2 [EA]2 | [Dc]2 [DB]2 [^CA]2 [CG]2 | %13
w: |||
w: Ring, sweet * * *|* bells, ring sweet|bells, Chime in glad-|
w: |||
 [DF]2 [DG]2 (z2 (3DF{d'}B) | [Fd]2 [Ge]2 (z2 (3DF{d'}B) | [Fd]2 [Ec]>[EF] [Fd]2 [Ec]2 | [DB]6 |] %17
w: ||||
w: ness, ban- * * *|ish sad- * * *|* ness; Ring, sweet bells,|ring|
w: ||||
V:2
 x2 | x8 | (D2 F2) x4 | x8 | x8 | x8 | x8 | x8 | F8 || x4 [DF]4 | x4 [Fd]4 | x8 | x8 | x4 [DF]4 | %14
 x4 [Fd]4 | x8 | x6 |] %17
V:3
 [B,,F,]>[B,,F,] | [B,,B,]2 [B,,F,]2 F,>F, [F,G,]>[F,A,] | [B,,B,]4 (F,2 _A,2) | %3
 [E,G,]2 [E,G,]2 [E,B,]>[E,B,] [E,B,]>[E,B,] | (z2 F,2 D,2) [B,,B,]>[B,,B,] | %5
 [F,B,]2 [F,A,]2 [F,C]>[F,C] [F,C]>[F,A,] | (z2 F,D,) [B,,B,]4 | %7
 [C,A,]2 [C,C]2 [C,G,]>[C,G,] [C,C]>[C,B,] | (z2 E,2 D,2 C,2) || [B,,B,]2 [B,,F,]2 (B,2 F,2) | %10
 B,2 B,2 B,4 | [F,B,]2 [F,A,]2 [F,A,]2 F,2 | [B,,F,]2 [B,,F,]2 =E,2 [B,,E,]2 | %13
 [B,,F,]2 [B,,B,]2 (B,2 F,2) | B,2 B,2 B,4 | [F,B,]2 [F,A,]>[F,A,] [F,A,]2 F,2 | [B,,F,]6 |] %17
V:4
 x2 | x4 F,>F, x2 | x4 B,,4 | x8 | [B,,B,]6 x2 | x8 | [B,,B,]4 x4 | x8 | [F,A,]8 || x4 B,,4 | %10
 B,2 B,2 B,4 | x6 F,2 | x8 | x4 B,,4 | B,2 B,2 B,4 | x6 F,2 | x6 |] %17

